X: 5
T: The Rakes Of Mallow
R: polka
M: 2/4
L: 1/8
K: Gmaj
|: GB GB | GB c/B/A/G/ | FA FA | FA d/c/B/A/ |GB GB | GB d>B | c/B/A/G/ F/G/A/c/ | BG Gz :||: gf/e/ dc | Bc d2 | gf/e/ dc | Bg A2 |gf/e/ dc | Bc d2 | c/B/A/G/ F/G/A/c/ | BG Gz :|


Tune 85	Setting 12597

